icon/pk/bell-ring.svg

<svg viewBox="0 0 48 48" fill="none" xmlns="http://www.w3.org/2000/svg" height="1em" width="1em">
  <circle cx="20" cy="20" r="16" fill="#2F88FF" stroke="black" stroke-width="4" stroke-linecap="round" stroke-linejoin="round"/>
  <path d="M44 18V20H42V18H44Z" fill="#2F88FF"/>
  <path d="M42 20H44V18H42V20ZM42 20C42 29.1371 36.4299 36.9732 28.5 40.2978" stroke="black" stroke-width="4" stroke-linecap="round" stroke-linejoin="round"/>
  <path d="M14 35L10 44H30L26 35" stroke="black" stroke-width="4" stroke-linecap="round" stroke-linejoin="round"/>
  <circle cx="20" cy="20" r="4" fill="#43CCF8" stroke="white" stroke-width="4" stroke-linecap="round" stroke-linejoin="round"/>
  <path d="M10 20C10 14.4772 14.4772 10 20 10" stroke="white" stroke-width="4" stroke-linecap="round" stroke-linejoin="round"/>
</svg>

<svg width="48" height="48" fill="none" xmlns="http://www.w3.org/2000/svg"><circle cx="20" cy="20" r="16" fill="#2F88FF" stroke="#000" stroke-width="4" stroke-linecap="round" stroke-linejoin="round"/><path d="M44 18v2h-2v-2h2Z" fill="#2F88FF"/><path d="M42 20h2v-2h-2v2Zm0 0c0 9.137-5.57 16.973-13.5 20.298M14 35l-4 9h20l-4-9" stroke="#000" stroke-width="4" stroke-linecap="round" stroke-linejoin="round"/><circle cx="20" cy="20" r="4" fill="#43CCF8" stroke="#fff" stroke-width="4" stroke-linecap="round" stroke-linejoin="round"/><path d="M10 20c0-5.523 4.477-10 10-10" stroke="#fff" stroke-width="4" stroke-linecap="round" stroke-linejoin="round"/></svg>
